packages/core/src/svgs/stima.svg

<svg width="24" height="24" viewBox="0 0 24 24" fill="none" xmlns="http://www.w3.org/2000/svg">
<g clip-path="url(#clip0_31_19387)">
<path d="M0 0H24V24H0V0Z" fill="#F0F3FA"/>
<path d="M11.6314 4.38451C11.8585 4.25594 12.1414 4.25594 12.3685 4.38451L18.4885 7.87737C18.7157 8.00594 18.8571 8.24594 18.8571 8.50737V15.4931C18.8571 15.7502 18.7157 15.9945 18.4885 16.1231L12.3685 19.6159C12.1414 19.7445 11.8585 19.7445 11.6314 19.6159L5.51139 16.1231C5.39998 16.0598 5.30724 15.9682 5.24253 15.8576C5.17782 15.747 5.14342 15.6212 5.14282 15.4931V8.50737C5.14282 8.25023 5.28425 8.00594 5.51139 7.87737L11.6314 4.38451Z" fill="url(#paint0_linear_31_19387)"/>
<path d="M12.0171 12.0002L6 8.57164L12.0171 5.14307L18 8.57164L12.0171 12.0002Z" fill="url(#paint1_linear_31_19387)"/>
<path d="M12 11.9784L11.9957 18.857L6.00857 15.407L6 8.57129L12 11.9784Z" fill="url(#paint2_linear_31_19387)"/>
<path d="M12 11.9784L12.0043 18.857L17.9914 15.407L18 8.57129L12 11.9784Z" fill="url(#paint3_linear_31_19387)"/>
<path d="M5.79418 10.77L12.137 14.3143C12.3642 14.4429 12.4413 14.7257 12.3085 14.9486C12.1799 15.1714 11.8928 15.2486 11.6656 15.12L5.32275 11.5757L5.79418 10.77Z" fill="url(#paint4_linear_31_19387)"/>
<path d="M18.1071 13.3158L11.7429 9.66868C11.5157 9.54011 11.4386 9.25725 11.5714 9.03011C11.7 8.81153 11.9829 8.73011 12.21 8.85868L18.5829 12.5144L18.1114 13.3158H18.1071Z" fill="url(#paint5_linear_31_19387)"/>
</g>
<defs>
<linearGradient id="paint0_linear_31_19387" x1="5.14282" y1="15.3388" x2="19.6243" y2="8.57166" gradientUnits="userSpaceOnUse">
<stop stop-color="#EBECF3"/>
<stop offset="1" stop-color="#ACB2C6"/>
</linearGradient>
<linearGradient id="paint1_linear_31_19387" x1="5.69571" y1="8.49449" x2="17.6186" y2="8.46021" gradientUnits="userSpaceOnUse">
<stop stop-color="#DD79B2"/>
<stop offset="0.5" stop-color="#D4399B"/>
<stop offset="1" stop-color="#B94299"/>
</linearGradient>
<linearGradient id="paint2_linear_31_19387" x1="6.3" y1="15.5441" x2="12.39" y2="12.1584" gradientUnits="userSpaceOnUse">
<stop stop-color="#DD79B2"/>
<stop offset="0.5" stop-color="#D4399B"/>
<stop offset="1" stop-color="#B94299"/>
</linearGradient>
<linearGradient id="paint3_linear_31_19387" x1="12.1929" y1="11.4127" x2="18.4886" y2="15.1756" gradientUnits="userSpaceOnUse">
<stop stop-color="#A7036C"/>
<stop offset="1" stop-color="#8C136D"/>
</linearGradient>
<linearGradient id="paint4_linear_31_19387" x1="5.32275" y1="10.77" x2="11.8628" y2="14.73" gradientUnits="userSpaceOnUse">
<stop stop-color="#E5E7EF"/>
<stop offset="1" stop-color="#ACB2C6"/>
</linearGradient>
<linearGradient id="paint5_linear_31_19387" x1="18.4414" y1="10.9287" x2="11.6571" y2="10.1487" gradientUnits="userSpaceOnUse">
<stop stop-color="#B7BDCE"/>
<stop offset="1" stop-color="#D0D3E1"/>
</linearGradient>
<clipPath id="clip0_31_19387">
<rect width="24" height="24" fill="white"/>
</clipPath>
</defs>
</svg>

<svg xmlns="http://www.w3.org/2000/svg" width="24" height="24" fill="none" viewBox="0 0 24 24"><g clip-path="url(#a)"><path fill="#F0F3FA" d="M0 0h24v24H0z"/><path fill="url(#b)" d="M11.631 4.385a.75.75 0 0 1 .737 0l6.12 3.492a.72.72 0 0 1 .37.63v6.986a.73.73 0 0 1-.37.63l-6.12 3.493a.75.75 0 0 1-.737 0l-6.12-3.493a.73.73 0 0 1-.368-.63V8.507a.73.73 0 0 1 .368-.63z"/><path fill="url(#c)" d="M12.017 12 6 8.572l6.017-3.429L18 8.572z"/><path fill="url(#d)" d="m12 11.978-.004 6.879-5.987-3.45L6 8.571z"/><path fill="url(#e)" d="m12 11.978.004 6.879 5.987-3.45L18 8.571z"/><path fill="url(#f)" d="m5.794 10.77 6.343 3.544a.457.457 0 0 1 .172.635.473.473 0 0 1-.643.171l-6.343-3.544z"/><path fill="url(#g)" d="m18.107 13.316-6.364-3.647a.46.46 0 0 1-.172-.639.47.47 0 0 1 .639-.171l6.373 3.655-.472.802z"/></g><defs><linearGradient id="b" x1="5.143" x2="19.624" y1="15.339" y2="8.572" gradientUnits="userSpaceOnUse"><stop stop-color="#EBECF3"/><stop offset="1" stop-color="#ACB2C6"/></linearGradient><linearGradient id="c" x1="5.696" x2="17.619" y1="8.494" y2="8.46" gradientUnits="userSpaceOnUse"><stop stop-color="#DD79B2"/><stop offset=".5" stop-color="#D4399B"/><stop offset="1" stop-color="#B94299"/></linearGradient><linearGradient id="d" x1="6.3" x2="12.39" y1="15.544" y2="12.158" gradientUnits="userSpaceOnUse"><stop stop-color="#DD79B2"/><stop offset=".5" stop-color="#D4399B"/><stop offset="1" stop-color="#B94299"/></linearGradient><linearGradient id="e" x1="12.193" x2="18.489" y1="11.413" y2="15.176" gradientUnits="userSpaceOnUse"><stop stop-color="#A7036C"/><stop offset="1" stop-color="#8C136D"/></linearGradient><linearGradient id="f" x1="5.323" x2="11.863" y1="10.77" y2="14.73" gradientUnits="userSpaceOnUse"><stop stop-color="#E5E7EF"/><stop offset="1" stop-color="#ACB2C6"/></linearGradient><linearGradient id="g" x1="18.441" x2="11.657" y1="10.929" y2="10.149" gradientUnits="userSpaceOnUse"><stop stop-color="#B7BDCE"/><stop offset="1" stop-color="#D0D3E1"/></linearGradient><clipPath id="a"><path fill="#fff" d="M0 0h24v24H0z"/></clipPath></defs></svg>
